remix/Weather/drizzle-fill.svg

<svg viewBox="0 0 24 24" fill="currentColor" xmlns="http://www.w3.org/2000/svg"><path d="M11 18V21H9V18C4.58172 18 1 14.4183 1 10C1 5.58172 4.58172 2 9 2C12.3949 2 15.2959 4.11466 16.4576 7.09864C16.7951 7.0339 17.1436 7 17.5 7C20.5376 7 23 9.46243 23 12.5C23 15.5376 20.5376 18 17.5 18H11ZM13 20H15V23H13V20Z"/></svg>

<svg viewBox="0 0 24 24" xmlns="http://www.w3.org/2000/svg"><path fill="none" d="M0 0h24v24H0Z"/><path d="M11 18v3H9v-3 0c-4.42-.01-8-3.59-8-8.01s3.58-8 8-8c3.29 0 6.25 2.02 7.45 5.09v0c2.98-.58 5.86 1.37 6.43 4.36 .57 2.98-1.38 5.86-4.37 6.43 -.35.06-.69.09-1.04.09h-6.5Zm2 2h2v3h-2v-3Z"/></svg>
